X: 24115
T: Longest Day, The
R: polka
M: 2/4
K: Eminor
|:EB B(A|A)G F(G|G)F E(A|A)A B/A/G/F/|EB B(A|A)G F(G|G)F ED|DE E2:|
|:ef g(d|d)B G(c|c)B AG|BB cd|ef g(d|d)B Gc|cB BA|AG G2:|

